X:1
T:Y'a dix marins sur mer
M:3/4
L:1/8
%F:http://termen.free.fr/danses/chants/ChantYadixmarinssurmer.abc 2005-09-06 15:24:36 UT
K:Am
|: "Am"EA/B/ cB "C"cB | "Am"EA/B/ cB "C"c2 | "Am"EA/B/ cB "C"c2 :|
|: "F"cd/e/ "Am"cA cB | "G"EA/B/ cB/A/ "Em"B2 | "F"cd/e/ cA "Am"cB | "G"EA/B/ c>B "Am"A2 :|
